images/standarts/standart-20.svg

<svg width="25" height="24" viewBox="0 0 25 24" fill="none" xmlns="http://www.w3.org/2000/svg">
<path fill-rule="evenodd" clip-rule="evenodd" d="M15.0078 5.51953C14.2838 4.9782 13.404 4.68567 12.5 4.68567C11.596 4.68567 10.7162 4.9782 9.99216 5.51953C9.59797 5.81818 9.12031 5.98618 8.62596 6.00003C8.13136 5.98631 7.65339 5.81851 7.25876 5.52003C6.52982 4.98767 6.00192 4.68213 4.75096 4.68213C3.5 4.68213 2 5.28439 2 5.28439V20H12.5H23V5.28439C23 5.28439 21.5 4.68213 20.249 4.68213C18.9981 4.68213 18.4702 4.98767 17.7412 5.52003C17.3466 5.81851 16.8686 5.98631 16.374 6.00003C15.8797 5.98618 15.402 5.81818 15.0078 5.51953ZM19 15C19 14.4477 18.5523 14 18 14L6.99975 14C6.44746 14 5.99975 14.4477 5.99975 15C5.99975 15.5523 6.44746 16 6.99975 16L18 16C18.5523 16 19 15.5523 19 15Z" fill="white"/>
</svg>

<svg width="25" height="24" fill="none" xmlns="http://www.w3.org/2000/svg"><path fill-rule="evenodd" clip-rule="evenodd" d="M15.008 5.52a4.188 4.188 0 00-5.016 0A2.372 2.372 0 018.626 6a2.376 2.376 0 01-1.367-.48c-.73-.532-1.257-.838-2.508-.838C3.5 4.682 2 5.284 2 5.284V20h21V5.284s-1.5-.602-2.751-.602c-1.25 0-1.779.306-2.508.838a2.376 2.376 0 01-1.367.48 2.373 2.373 0 01-1.366-.48zM19 15a1 1 0 00-1-1H7a1 1 0 100 2h11a1 1 0 001-1z" fill="#fff"/></svg>
